svg/arrow/transfer_vertical_fill.svg

<?xml version="1.0" encoding="UTF-8"?>
<svg width="24px" height="24px" viewBox="0 0 24 24" version="1.1" xmlns="http://www.w3.org/2000/svg" xmlns:xlink="http://www.w3.org/1999/xlink">
    <title>transfer_vertical_fill</title>
    <g id="Icon" stroke="none" stroke-width="1" fill="none" fill-rule="evenodd">
        <g id="Arrow" transform="translate(-48.000000, -338.000000)" fill-rule="nonzero">
            <g id="transfer_vertical_fill" transform="translate(48.000000, 338.000000)">
                <path d="M24,0 L24,24 L0,24 L0,0 L24,0 Z M12.5935,23.2578 L12.5819,23.2595 L12.5109,23.295 L12.4919,23.2987 L12.4767,23.295 L12.4057,23.2595 C12.3958,23.2564 12.387,23.259 12.3821,23.2649 L12.378,23.2758 L12.3609,23.7031 L12.3659,23.7235 L12.3769,23.7357 L12.4805,23.8097 L12.4953,23.8136 L12.5071,23.8097 L12.6107,23.7357 L12.6233,23.7197 L12.6267,23.7031 L12.6096,23.2758 C12.6076,23.2657 12.601,23.2593 12.5935,23.2578 Z M12.8584,23.1453 L12.8445,23.1473 L12.6598,23.2397 L12.6499,23.2499 L12.6472,23.2611 L12.6651,23.6906 L12.6699,23.7034 L12.6784,23.7105 L12.8793,23.8032 C12.8914,23.8069 12.9022,23.803 12.9078,23.7952 L12.9118,23.7812 L12.8777,23.1665 C12.8753,23.1546 12.8674,23.147 12.8584,23.1453 Z M12.143,23.1473 C12.1332,23.1424 12.1222,23.1453 12.1156,23.1526 L12.1099,23.1665 L12.0758,23.7812 C12.0751,23.7927 12.0828,23.8019 12.0926,23.8046 L12.1083,23.8032 L12.3092,23.7105 L12.3186,23.7024 L12.3225,23.6906 L12.3404,23.2611 L12.3372,23.2485 L12.3278,23.2397 L12.143,23.1473 Z" id="MingCute"></path>
                <path d="M10.9991,11.9993 L7.99921,11.9993 C7.44693,11.9993 6.99921,12.447 6.99921,12.9993 L6.99921,14.9993 L5.20613,14.9993 C3.86985,14.9993 3.20057,16.6148 4.14536,17.5598 L6.99672,20.4118 L6.99672,20.4141 L8.93613,22.3538 C9.22944,22.6471 9.61401,22.7936 9.99846,22.7932008 C10.3826,22.7932008 10.7667,22.6468 11.0597,22.3538 L12.9991,20.4141 L12.9991,20.4118 L15.8505,17.5598 C16.7953,16.6148 16.126,14.9993 14.7897,14.9993 L12.9966,14.9993 L12.9966,14.0032 L12.9991,14.0032 L12.9991,12.0031 L15.9966,12.0031 C16.5489,12.0031 16.9966,11.5554 16.9966,11.0031 L16.9966,9.00312 L18.7897,9.00312 C20.126,9.00312 20.7953,7.38757 19.8505,6.44257 L16.9991,3.5906 L16.9991,3.58832 L15.0597,1.64864 C14.7667,1.35557 14.3826,1.20922914 13.9985,1.20922914 C13.614,1.20882 13.2294,1.35529 12.9361,1.64864 L10.9967,3.58832 L10.9967,3.5906 L8.14536,6.44257 C7.20057,7.38757 7.86985,9.00312 9.20613,9.00312 L10.9992,9.00312 L10.9991,11.9993 Z" id="路径" fill="#09244B"></path>
            </g>
        </g>
    </g>
</svg>

<svg xmlns="http://www.w3.org/2000/svg" width="24" height="24"><g fill="none" fill-rule="nonzero"><path d="M24 0v24H0V0h24ZM12.594 23.258l-.012.002-.071.035-.02.004-.014-.004-.071-.036c-.01-.003-.019 0-.024.006l-.004.01-.017.428.005.02.01.013.104.074.015.004.012-.004.104-.074.012-.016.004-.017-.017-.427c-.002-.01-.009-.017-.016-.018Zm.264-.113-.014.002-.184.093-.01.01-.003.011.018.43.005.012.008.008.201.092c.012.004.023 0 .029-.008l.004-.014-.034-.614c-.003-.012-.01-.02-.02-.022Zm-.715.002a.023.023 0 0 0-.027.006l-.006.014-.034.614c0 .012.007.02.017.024l.015-.002.201-.093.01-.008.003-.011.018-.43-.003-.012-.01-.01-.184-.092Z"/><path fill="#09244B" d="M11 12H8a1 1 0 0 0-1 1v2H5.205c-1.336 0-2.005 1.615-1.06 2.56l2.85 2.852v.002l1.94 1.94c.293.293.678.44 1.062.44.385 0 .769-.147 1.062-.44l1.94-1.94v-.002l2.85-2.852c.945-.945.276-2.56-1.06-2.56h-1.793v-.997h.002v-2h2.998a1 1 0 0 0 1-1v-2h1.793c1.336 0 2.005-1.615 1.06-2.56L17 3.59v-.003l-1.94-1.94a1.496 1.496 0 0 0-1.062-.439c-.384 0-.769.146-1.062.44l-1.94 1.94v.002l-2.85 2.852c-.945.945-.276 2.56 1.06 2.56H11V12Z"/></g></svg>
